X:2094 
T:Arrane ny clean
T:Cradle song 
C:John Cubbon, painter, Castletown
O:Isle of Man
S:Traditional 
Z:Clague collection
B:Kiaull Vannin #94 
M:2/4 
L:1/4 
K:G 
e|e f/g/|a c|c/A/ B/B/|A e|e e/f/|g f|e e/d/|
c c/A/|B B/A/|A/A/ A/G/|E E/E/|A/B/ c/d/|e B|A||

